X:200
T:Pray Goody. JaW.200
M:C|
L:1/8
Q:1/2=90
S:James Winder Ms, Lancashire, 1835-41
R:.Country Dance
O:England
A:Wyresdale,Lancashire
N:Almost a hornpipe.CGP…
Z:vmp.Chris Partington, Aug 2004
K:G
d4cBAG|BAGF GBdf|g2fe dBAG|gdcB “Qu’s”B2A2|!
d4cBAG|BAGF GBdf|{ef}g2fe dBec|BdcA “cr”G4:|!
|:g2d2e2d2|gBBB (c2B2)|gddd gddd|gdcB HB2 A2:|

